packages/core/src/svgs/tokens/branded/CHEQ.svg

<svg width="24" height="24" viewBox="0 0 24 24" fill="none" xmlns="http://www.w3.org/2000/svg">
<path d="M4.48698 5.30203L9.99693 2.50297C10.7444 2.12111 11.5825 1.95226 12.4196 2.01489C13.4428 2.09722 16.1771 6.73096 16.1771 6.73096C16.0606 6.54301 15.8977 6.38811 15.7041 6.28105C15.5105 6.17397 15.2928 6.11832 15.0716 6.11939H3.92246C3.31678 6.11939 2.74638 6.70743 2.52881 6.96029C2.95808 6.14291 3.63433 5.73717 4.48698 5.30203Z" fill="url(#paint0_linear_364_3702)"/>
<path d="M16.1775 7.00151L17.4829 9.10667C17.7174 9.46373 18.0393 9.75502 18.4181 9.9526C18.7968 10.1502 19.2198 10.2476 19.6468 10.2357C20.8289 10.2357 21.9578 9.33599 21.999 8.2599C22.0049 8.07173 21.9814 7.87768 21.9167 7.68363C21.5756 6.6428 20.8112 5.89012 19.6527 5.30207L14.1428 2.50302C13.6064 2.22829 13.0208 2.0624 12.4199 2.01495C13.4431 2.09728 16.1716 6.99562 16.1775 7.00738V7.00151Z" fill="url(#paint1_linear_364_3702)"/>
<path d="M2.00589 9.0655C2.00589 8.31869 2.19405 7.59541 2.52924 6.96033C2.74093 6.70748 3.3172 6.11945 3.92288 6.11945H9.41508C8.98587 6.11945 8.58601 6.33113 8.34492 6.68395L5.53411 11.0766C5.44974 11.2024 5.3825 11.3388 5.33417 11.4823V11.4941C5.33417 11.4941 3.00555 15.2222 2.82914 15.528C2.47631 16.1573 2.49395 16.704 2.49395 16.704C2.16949 16.0686 2.00022 15.3653 2 14.6518V9.0655H2.00589Z" fill="url(#paint2_linear_364_3702)"/>
<path d="M2.82982 15.528C3.00622 15.2221 5.32897 11.494 5.32897 11.494V11.4822C5.15844 11.988 5.229 12.5525 5.54066 12.9994L8.3456 17.051C8.3456 17.051 9.73922 19.4501 10.786 21.0143C11.0555 21.4609 11.4646 21.8061 11.9502 21.9964C11.2709 21.979 10.6039 21.8102 9.998 21.5024L4.48808 18.6975C3.62912 18.261 2.93106 17.5629 2.49463 16.704L2.50052 16.7158C2.50052 16.7158 2.477 16.163 2.83569 15.5339L2.82982 15.528Z" fill="url(#paint3_linear_364_3702)"/>
<path d="M10.7855 21.0145C9.73885 19.4504 8.49219 17.3217 8.49219 17.3217C8.73328 17.6745 9.13902 17.8803 9.5624 17.8803H21.1761C20.7367 18.3325 20.2186 18.7012 19.6472 18.9682L14.1373 21.4967C13.4494 21.8496 12.6967 22.0142 11.9439 21.9965C11.4583 21.8062 11.0491 21.461 10.7796 21.0145H10.7855Z" fill="url(#paint4_linear_364_3702)"/>
<path d="M21.1765 17.8799C21.5882 17.4214 21.9998 16.7039 21.9998 16.1158C21.9998 14.9398 21.1765 13.7637 19.6476 13.7637C18.4716 13.7637 17.8542 14.3517 17.3837 15.0986L16.1782 17.2743C15.943 17.6507 15.5314 17.8799 15.0845 17.8799H21.1765Z" fill="url(#paint5_linear_364_3702)"/>
<defs>
<linearGradient id="paint0_linear_364_3702" x1="15.3186" y1="5.83125" x2="3.28738" y2="5.83125" gradientUnits="userSpaceOnUse">
<stop stop-color="#A53523"/>
<stop offset="1" stop-color="#DD9D1A"/>
</linearGradient>
<linearGradient id="paint1_linear_364_3702" x1="13.7312" y1="2.02084" x2="21.0993" y2="9.01259" gradientUnits="userSpaceOnUse">
<stop stop-color="#DB991A"/>
<stop offset="0.27" stop-color="#D48D1C"/>
<stop offset="1" stop-color="#9C2425"/>
</linearGradient>
<linearGradient id="paint2_linear_364_3702" x1="5.71052" y1="6.38994" x2="5.71052" y2="16.7158" gradientUnits="userSpaceOnUse">
<stop stop-color="#A12E24"/>
<stop offset="1" stop-color="#E4AB19"/>
</linearGradient>
<linearGradient id="paint3_linear_364_3702" x1="2.50639" y1="16.7158" x2="10.439" y2="21.5318" gradientUnits="userSpaceOnUse">
<stop stop-color="#971C26"/>
<stop offset="1" stop-color="#DEA01A"/>
</linearGradient>
<linearGradient id="paint4_linear_364_3702" x1="20.7409" y1="18.1566" x2="7.76302" y2="18.1566" gradientUnits="userSpaceOnUse">
<stop stop-color="#E3A919"/>
<stop offset="1" stop-color="#9B2225"/>
</linearGradient>
<linearGradient id="paint5_linear_364_3702" x1="18.501" y1="13.899" x2="18.501" y2="17.6095" gradientUnits="userSpaceOnUse">
<stop stop-color="#E1A419"/>
<stop offset="1" stop-color="#971C26"/>
</linearGradient>
</defs>
</svg>

<svg xmlns="http://www.w3.org/2000/svg" width="24" height="24" fill="none" viewBox="0 0 24 24">
    <path fill="url(#CHEQ__a)" d="m4.487 5.302 5.51-2.799a4.6 4.6 0 0 1 2.423-.488c1.023.082 3.757 4.716 3.757 4.716a1.29 1.29 0 0 0-1.105-.612H3.922c-.605 0-1.176.588-1.393.841.43-.817 1.105-1.223 1.958-1.658"/>
    <path fill="url(#CHEQ__b)" d="m16.177 7.002 1.306 2.105a2.5 2.5 0 0 0 2.164 1.129c1.182 0 2.31-.9 2.352-1.976a1.7 1.7 0 0 0-.082-.576c-.341-1.041-1.106-1.794-2.264-2.382l-5.51-2.799a4.6 4.6 0 0 0-1.723-.488c1.023.082 3.752 4.98 3.757 4.992z"/>
    <path fill="url(#CHEQ__c)" d="M2.006 9.066c0-.747.188-1.47.523-2.106.212-.253.788-.84 1.394-.84h5.492c-.43 0-.829.211-1.07.564l-2.81 4.393a1.7 1.7 0 0 0-.2.405v.012s-2.33 3.728-2.506 4.034c-.353.63-.335 1.176-.335 1.176A4.5 4.5 0 0 1 2 14.652V9.066z"/>
    <path fill="url(#CHEQ__d)" d="M2.83 15.528c.176-.306 2.499-4.034 2.499-4.034v-.012c-.17.506-.1 1.07.212 1.517l2.805 4.052s1.393 2.4 2.44 3.963c.27.447.679.792 1.164.982a4.6 4.6 0 0 1-1.952-.494l-5.51-2.804a4.55 4.55 0 0 1-1.993-1.994l.006.012s-.024-.553.335-1.182z"/>
    <path fill="url(#CHEQ__e)" d="M10.786 21.015c-1.047-1.565-2.294-3.693-2.294-3.693a1.3 1.3 0 0 0 1.07.558h11.614a5.2 5.2 0 0 1-1.529 1.088l-5.51 2.529a4.56 4.56 0 0 1-2.193.5 2.37 2.37 0 0 1-1.164-.982z"/>
    <path fill="url(#CHEQ__f)" d="M21.177 17.88c.411-.459.823-1.176.823-1.764 0-1.176-.823-2.352-2.352-2.352-1.176 0-1.794.588-2.264 1.335l-1.206 2.175a1.29 1.29 0 0 1-1.094.606z"/>
    <defs>
        <linearGradient id="CHEQ__a" x1="15.319" x2="3.287" y1="5.831" y2="5.831" gradientUnits="userSpaceOnUse">
            <stop stop-color="#A53523"/>
            <stop offset="1" stop-color="#DD9D1A"/>
        </linearGradient>
        <linearGradient id="CHEQ__b" x1="13.731" x2="21.099" y1="2.021" y2="9.013" gradientUnits="userSpaceOnUse">
            <stop stop-color="#DB991A"/>
            <stop offset=".27" stop-color="#D48D1C"/>
            <stop offset="1" stop-color="#9C2425"/>
        </linearGradient>
        <linearGradient id="CHEQ__c" x1="5.711" x2="5.711" y1="6.39" y2="16.716" gradientUnits="userSpaceOnUse">
            <stop stop-color="#A12E24"/>
            <stop offset="1" stop-color="#E4AB19"/>
        </linearGradient>
        <linearGradient id="CHEQ__d" x1="2.506" x2="10.439" y1="16.716" y2="21.532" gradientUnits="userSpaceOnUse">
            <stop stop-color="#971C26"/>
            <stop offset="1" stop-color="#DEA01A"/>
        </linearGradient>
        <linearGradient id="CHEQ__e" x1="20.741" x2="7.763" y1="18.157" y2="18.157" gradientUnits="userSpaceOnUse">
            <stop stop-color="#E3A919"/>
            <stop offset="1" stop-color="#9B2225"/>
        </linearGradient>
        <linearGradient id="CHEQ__f" x1="18.501" x2="18.501" y1="13.899" y2="17.61" gradientUnits="userSpaceOnUse">
            <stop stop-color="#E1A419"/>
            <stop offset="1" stop-color="#971C26"/>
        </linearGradient>
    </defs>
</svg>
